src/assets/check.svg

<svg fill="none" height="24" viewBox="0 0 24 24" width="24" xmlns="http://www.w3.org/2000/svg"><path clip-rule="evenodd" d="m18.7071 7.29289c.3905.39053.3905 1.02369 0 1.41422l-8 7.99999c-.3905.3905-1.02368.3905-1.41421 0l-4-4c-.39052-.3905-.39052-1.0237 0-1.4142.39053-.3905 1.02369-.3905 1.41422 0l3.29289 3.2929 7.2929-7.29291c.3905-.39052 1.0237-.39052 1.4142 0z" fill="#141414" fill-rule="evenodd"/></svg>

<svg xmlns="http://www.w3.org/2000/svg" width="24" height="24" fill="none" viewBox="0 0 24 24">
    <path fill="#141414" fill-rule="evenodd" d="M18.7071 7.29289C19.0976 7.68342 19.0976 8.31658 18.7071 8.70711L10.7071 16.7071C10.3166 17.0976 9.68342 17.0976 9.29289 16.7071L5.29289 12.7071C4.90237 12.3166 4.90237 11.6834 5.29289 11.2929C5.68342 10.9024 6.31658 10.9024 6.70711 11.2929L10 14.5858L17.2929 7.29289C17.6834 6.90237 18.3166 6.90237 18.7071 7.29289Z" clip-rule="evenodd"/>
</svg>
